X:1574
T:Doideag Mhuileach
O:england
S:Alexander Mackay, A collection of Reels...
B:NLS Glen.344
N:Mc16 in Gore's Scottish Fiddle Music Index
N:Gore guesses 1802, a note (by Murdoch Henderson?)
N:on the titlepage says there's an 1832 watermark.
M:6/8
L:1/8
K:A Minor
c|G2F E2D|C2D     E2 A|G2E CDE|G3 G2A|G2F E2D|CDE     c3  |AGE DEG|A3  A2 c   |
G2F E2D|C2D     E2 A|G2E CDE|c3 c2d|e2c d2B|c2A     G2 c|AGE DEG|A3 (A2{B})||
c2d efg|edc ({c}B2)G|AcA AGE|A3 G2A|c2d efg|edc ({c}B2)G|ABc EFG|A3  A2 B   |
c2d efg|edc ({c}B2)G|AcA AGE|c3 c2d|efg edc|BAG     ABc |AGE DEG|A3 (A2{B})|]


